assets/images/sow-logo.svg

<svg fill="none" height="63" viewBox="0 0 75 63" width="75" xmlns="http://www.w3.org/2000/svg" xmlns:xlink="http://www.w3.org/1999/xlink"><clipPath id="a"><path d="m0 0h62.9146v48h-62.9146z" transform="matrix(.96592583 -.25881905 .25881905 .96592583 .90332 16.4595)"/></clipPath><g clip-path="url(#a)"><path d="m65.3412 34.5669c.2746 1.0247.1308 2.1165-.3996 3.0353-.5304.9187-1.4041 1.5891-2.4288 1.8637l-39.2865 6.2116-5.6569 9.798-8.28217-30.9096c-.27457-1.0248-.13083-2.1166.3996-3.0353.53047-.9188 1.40407-1.5892 2.42887-1.8637l43.1501-7.247c1.0248-.2745 2.1166-.1308 3.0353.3996.9188.5305 1.5892 1.4041 1.8637 2.4289z" fill="#ff5f45"/><path d="m16.3246 32.4446-.469-2.3212c.5008.4567.9793.639 1.4356.5468.1723-.0348.3036-.1079.3941-.2191.0898-.1145.1208-.2403.0931-.3775-.04-.1978-.1971-.367-.4712-.5076l-.3767-.1879c-.2499-.1189-.4675-.2426-.6529-.3712-.186-.1318-.344-.2725-.4739-.4223-.1305-.153-.2365-.3159-.3179-.4887-.0814-.1729-.1424-.3598-.1831-.5608-.0696-.3446-.0627-.7213.0208-1.13.0443-.1916.1046-.3699.1809-.5347.0756-.1681.1707-.3218.2854-.4612.312-.3951.7344-.6465 1.2673-.7542.4754-.0961.9795-.0667 1.5122.088l.4565 2.259c-.2137-.2192-.4387-.3796-.6751-.4813-.2371-.1049-.4561-.137-.6571-.0964-.1532.031-.2702.1011-.351.2104-.0847.1068-.1148.2208-.0903.3421.0399.1978.2152.3666.5257.5065l.3633.1707c.4824.218.8468.4681 1.0931.7505.2496.2817.4175.6363.5039 1.0638.147.7275.0465 1.3722-.3016 1.934-.3481.5619-.862.9114-1.5416 1.0488-.469.0947-.9925.0926-1.5705-.0065zm9.7432-1.7794-2.0628.4168-.338-.9081-1.3448.2718.0268.9709-2.0628.4168.2824-7.7485 2.4409-.4932zm-2.9554-2.0281-.3033-.8354c-.0038-.0025-.0189-.0443-.0452-.1253-.0206-.0689-.1102-.3398-.2688-.8125-.0174-.0529-.0402-.1247-.0684-.2153-.0289-.0938-.0659-.2109-.1108-.3512l-.2035-.6862c.0072.0683.0128.1452.0168.2307.0072.0849.0144.1781.0216.2796.0176.2023.0294.3428.0353.4213s.0089.126.0089.1426l.0421.9231.033 1.1988zm6.5547 1.3008-2.0341.411-3.1874-7.0473 2.0963-.4236.7902 2.0371c.3003.7796.5928 1.6603.8776 2.6422-.0545-.4506-.0953-.8741-.1222-1.2704-.027-.3964-.0424-.7852-.0464-1.1663l-.0203-2.5414 2.1681-.4381zm2.3358-.4719-1.4932-7.3898 3.7092-.7494.3511 1.7373-1.7134.3462.2176 1.0769 1.5363-.3104.3375 1.6703-1.5363.3104.2282 1.1295 1.7134-.3462.3588 1.7757zm11.8125-6.2077c.2276 1.1263.1558 2.094-.2154 2.9029-.3687.8051-.9631 1.2905-1.7831 1.4562-.7275.147-1.4057.0035-2.0348-.4307-.792-.5506-1.326-1.5088-1.602-2.8744-.2643-1.3082-.125-2.3775.4179-3.2078.4035-.6163.9531-.9946 1.6486-1.1352.852-.1721 1.6003.0387 2.245.6324.6446.5937 1.0859 1.4792 1.3238 2.6566zm-2.0694.4331c-.2702-1.3369-.6414-1.9577-1.1136-1.8622-.2361.0477-.3889.2612-.4584.6406-.0714.3531-.0433.8456.0844 1.4774.1257.6222.2872 1.0927.4844 1.4115.1998.3149.4146.4492.6443.4028.2361-.0477.3838-.2536.4431-.6176.0657-.3653.0376-.8494-.0842-1.4525zm4.9939-4.8946 1.9958-.4033 1.0561 5.2264c.0883.4371.0913.8052.0089 1.1041-.0767.311-.2481.613-.5144.9059-.3593.3915-.8404.6481-1.4435.7699-.6828.138-1.2897.0846-1.8207-.1601-.6741-.3121-1.1069-.942-1.2984-1.8896l-.999-4.9441 1.9958-.4032.9632 4.7669c.0651.3223.1495.5427.2531.6612.1069.1179.2528.1581.4379.1207.1915-.0386.3113-.1276.3595-.2669.047-.1456.0369-.3844-.0301-.7162zm9.5866 5.7543-2.1585.4362-1.5178-2.4332c-.0186-.0427-.0481-.0982-.0884-.1664-.0372-.0689-.0836-.1508-.1394-.2458l.113.4852.5222 2.5845-1.9862.4014-1.4931-7.3897 2.0436-.413c.8998-.1818 1.6088-.1408 2.1271.1232.6595.3383 1.0737.9254 1.2426 1.7614.1805.8934-.076 1.5878-.7696 2.0833zm-4.061-3.3091.134-.027c.2298-.0465.4035-.1729.5212-.3793.1177-.2065.1491-.4453.0943-.7165-.1115-.552-.4561-.7696-1.0336-.653l-.0718.0146zm-23.3719 18.0341-1.924.3888-.9826-2.4965c-.1906-.4829-.3453-.9033-.4641-1.2612-.0591-.1773-.1088-.325-.1493-.443-.0404-.1181-.0703-.2083-.0896-.2709.0105.1341.0359.383.0762.7468.0208.1851.0403.3804.0586.5859.0183.2056.034.4232.0473.653l.1634 2.7566-1.9431.3927-3.1396-7.0571 1.9719-.3984.7364 1.9683c.2882.7853.503 1.4045.6443 1.8574l.2034.6613-.0548-.5916c-.0697-.69-.1134-1.3504-.1313-1.9811l-.0531-2.1861 1.7182-.3471.6938 1.7079c.3265.7942.6629 1.7441 1.0092 2.8497-.0674-.5144-.12-.972-.1579-1.3728-.0378-.4009-.0634-.766-.0768-1.0954l-.0995-2.366 1.9479-.3936zm7.1459-1.4439-2.0628.4168-.338-.9081-1.3448.2718.0268.9709-2.0628.4168.2824-7.7485 2.4409-.4932zm-2.9554-2.0281-.3033-.8354c-.0038-.0025-.0189-.0443-.0452-.1253-.0206-.0689-.1102-.3397-.2688-.8125-.0174-.0529-.0402-.1247-.0684-.2153-.0289-.0938-.0659-.2109-.1108-.3512l-.2035-.6862c.0072.0683.0128.1452.0168.2307.0072.0849.0144.1781.0216.2796.0176.2023.0294.3428.0353.4213s.0089.126.0089.1426l.0421.9231.033 1.1988zm6.8371 1.2438-3.4939.7059-1.4931-7.3897 1.9958-.4032 1.1343 5.614 1.4981-.3027zm3.8912-.7863-3.4938.706-1.4932-7.3897 1.9958-.4033 1.1344 5.6141 1.4981-.3027zm.3975-.0803-1.4932-7.3897 3.7092-.7495.3511 1.7373-1.7134.3463.2176 1.0768 1.5363-.3104.3375 1.6703-1.5363.3105.2282 1.1295 1.7134-.3462.3588 1.7756zm6.9496-1.4042-1.9958.4032-1.1354-5.6188-1.1008.2224-.3578-1.7709 4.2405-.8568.3578 1.7709-1.1439.2311zm1.4327-.4788-.469-2.3213c.5008.4568.9793.639 1.4356.5468.1723-.0348.3036-.1078.3941-.2191.0898-.1144.1208-.2403.0931-.3775-.04-.1978-.1971-.367-.4712-.5075l-.3767-.1879c-.2499-.1189-.4675-.2426-.6529-.3712-.186-.1318-.344-.2726-.4739-.4224-.1305-.1529-.2365-.3158-.3179-.4887-.0814-.1728-.1424-.3597-.1831-.5607-.0696-.3446-.0627-.7213.0208-1.1301.0443-.1916.1046-.3698.1809-.5347.0756-.168.1707-.3217.2854-.4611.312-.3952.7345-.6466 1.2673-.7543.4754-.096.9795-.0667 1.5122.088l.4565 2.2591c-.2137-.2192-.4387-.3797-.6751-.4813-.2371-.1049-.4561-.137-.6571-.0964-.1532.0309-.2702.1011-.351.2104-.0847.1068-.1148.2208-.0903.342.0399.1979.2152.3667.5257.5065l.3633.1707c.4824.218.8468.4682 1.0932.7505.2495.2817.4175.6363.5038 1.0639.147.7275.0465 1.3721-.3016 1.934-.3481.5618-.862.9114-1.5416 1.0487-.469.0948-.9925.0926-1.5705-.0064z" fill="#fff"/></g></svg>

<svg width="75" height="63" viewBox="0 0 75 63" fill="none" xmlns="http://www.w3.org/2000/svg">
<g clip-path="url(#clip0_237_773)">
<path d="M65.3412 34.5669C65.6158 35.5916 65.472 36.6834 64.9416 37.6022C64.4112 38.5209 63.5375 39.1913 62.5128 39.4659L23.2263 45.6775L17.5694 55.4755L9.28723 24.5659C9.01266 23.5411 9.1564 22.4493 9.68683 21.5306C10.2173 20.6118 11.0909 19.9414 12.1157 19.6669L55.2658 12.4199C56.2906 12.1454 57.3824 12.2891 58.3011 12.8195C59.2199 13.35 59.8903 14.2236 60.1648 15.2484L65.3412 34.5669Z" fill="#FF5F45"/>
<path d="M16.3246 32.4446L15.8556 30.1234C16.3564 30.5801 16.8349 30.7624 17.2912 30.6702C17.4635 30.6354 17.5948 30.5623 17.6853 30.4511C17.7751 30.3366 17.8061 30.2108 17.7784 30.0736C17.7384 29.8758 17.5813 29.7066 17.3072 29.566L16.9305 29.3781C16.6806 29.2592 16.463 29.1355 16.2776 29.0069C16.0916 28.8751 15.9336 28.7344 15.8037 28.5846C15.6732 28.4316 15.5672 28.2687 15.4858 28.0959C15.4044 27.923 15.3434 27.7361 15.3027 27.5351C15.2331 27.1905 15.24 26.8138 15.3235 26.4051C15.3678 26.2135 15.4281 26.0352 15.5044 25.8704C15.58 25.7023 15.6751 25.5486 15.7898 25.4092C16.1018 25.0141 16.5242 24.7627 17.0571 24.655C17.5325 24.5589 18.0366 24.5883 18.5693 24.743L19.0258 27.002C18.8121 26.7828 18.5871 26.6224 18.3507 26.5207C18.1136 26.4158 17.8946 26.3837 17.6936 26.4243C17.5404 26.4553 17.4234 26.5254 17.3426 26.6347C17.2579 26.7415 17.2278 26.8555 17.2523 26.9768C17.2922 27.1746 17.4675 27.3434 17.778 27.4833L18.1413 27.654C18.6237 27.872 18.9881 28.1221 19.2344 28.4045C19.484 28.6862 19.6519 29.0408 19.7383 29.4683C19.8853 30.1958 19.7848 30.8405 19.4367 31.4023C19.0886 31.9642 18.5747 32.3137 17.8951 32.4511C17.4261 32.5458 16.9026 32.5437 16.3246 32.4446ZM26.0678 30.6652L24.005 31.082L23.667 30.1739L22.3222 30.4457L22.349 31.4166L20.2862 31.8334L20.5686 24.0849L23.0095 23.5917L26.0678 30.6652ZM23.1124 28.6371L22.8091 27.8017C22.8053 27.7992 22.7902 27.7574 22.7639 27.6764C22.7433 27.6075 22.6537 27.3366 22.4951 26.8639C22.4777 26.811 22.4549 26.7392 22.4267 26.6486C22.3978 26.5548 22.3608 26.4377 22.3159 26.2974L22.1124 25.6112C22.1196 25.6795 22.1252 25.7564 22.1292 25.8419C22.1364 25.9268 22.1436 26.02 22.1508 26.1215C22.1684 26.3238 22.1802 26.4643 22.1861 26.5428C22.192 26.6213 22.195 26.6688 22.195 26.6854L22.2371 27.6085L22.2701 28.8073L23.1124 28.6371ZM29.6671 29.9379L27.633 30.3489L24.4456 23.3016L26.5419 22.878L27.3321 24.9151C27.6324 25.6947 27.9249 26.5754 28.2097 27.5573C28.1552 27.1067 28.1144 26.6832 28.0875 26.2869C28.0605 25.8905 28.0451 25.5017 28.0411 25.1206L28.0208 22.5792L30.1889 22.1411L29.6671 29.9379ZM32.0029 29.466L30.5097 22.0762L34.2189 21.3268L34.57 23.0641L32.8566 23.4103L33.0742 24.4872L34.6105 24.1768L34.948 25.8471L33.4117 26.1575L33.6399 27.287L35.3533 26.9408L35.7121 28.7165L32.0029 29.466ZM43.8154 23.2583C44.043 24.3846 43.9712 25.3523 43.6 26.1612C43.2313 26.9663 42.6369 27.4517 41.8169 27.6174C41.0894 27.7644 40.4112 27.6209 39.7821 27.1867C38.9901 26.6361 38.4561 25.6779 38.1801 24.3123C37.9158 23.0041 38.0551 21.9348 38.598 21.1045C39.0015 20.4882 39.5511 20.1099 40.2466 19.9693C41.0986 19.7972 41.8469 20.008 42.4916 20.6017C43.1362 21.1954 43.5775 22.0809 43.8154 23.2583ZM41.746 23.6914C41.4758 22.3545 41.1046 21.7337 40.6324 21.8292C40.3963 21.8769 40.2435 22.0904 40.174 22.4698C40.1026 22.8229 40.1307 23.3154 40.2584 23.9472C40.3841 24.5694 40.5456 25.0399 40.7428 25.3587C40.9426 25.6736 41.1574 25.8079 41.3871 25.7615C41.6232 25.7138 41.7709 25.5079 41.8302 25.1439C41.8959 24.7786 41.8678 24.2945 41.746 23.6914ZM46.7399 18.7968L48.7357 18.3935L49.7918 23.6199C49.8801 24.057 49.8831 24.4251 49.8007 24.724C49.724 25.035 49.5526 25.337 49.2863 25.6299C48.927 26.0214 48.4459 26.278 47.8428 26.3998C47.16 26.5378 46.5531 26.4844 46.0221 26.2397C45.348 25.9276 44.9152 25.2977 44.7237 24.3501L43.7247 19.406L45.7205 19.0028L46.6837 23.7697C46.7488 24.092 46.8332 24.3124 46.9368 24.4309C47.0437 24.5488 47.1896 24.589 47.3747 24.5516C47.5662 24.513 47.686 24.424 47.7342 24.2847C47.7812 24.1391 47.7711 23.9003 47.7041 23.5685L46.7399 18.7968ZM56.3265 24.5511L54.168 24.9873L52.6502 22.5541C52.6316 22.5114 52.6021 22.4559 52.5618 22.3877C52.5246 22.3188 52.4782 22.2369 52.4224 22.1419L52.5354 22.6271L53.0576 25.2116L51.0714 25.613L49.5783 18.2233L51.6219 17.8103C52.5217 17.6285 53.2307 17.6695 53.749 17.9335C54.4085 18.2718 54.8227 18.8589 54.9916 19.6949C55.1721 20.5883 54.9156 21.2827 54.222 21.7782L56.3265 24.5511ZM52.2655 21.242L52.3995 21.215C52.6293 21.1685 52.803 21.0421 52.9207 20.8357C53.0384 20.6292 53.0698 20.3904 53.015 20.1192C52.9035 19.5672 52.5589 19.3496 51.9814 19.4662L51.9096 19.4808L52.2655 21.242ZM28.8936 39.2761L26.9696 39.6649L25.987 37.1684C25.7964 36.6855 25.6417 36.2651 25.5229 35.9072C25.4638 35.7299 25.4141 35.5822 25.3736 35.4642C25.3332 35.3461 25.3033 35.2559 25.284 35.1933C25.2945 35.3274 25.3199 35.5763 25.3602 35.9401C25.381 36.1252 25.4005 36.3205 25.4188 36.526C25.4371 36.7316 25.4528 36.9492 25.4661 37.179L25.6295 39.9356L23.6864 40.3283L20.5468 33.2712L22.5187 32.8728L23.2551 34.8411C23.5433 35.6264 23.7581 36.2456 23.8994 36.6985L24.1028 37.3598L24.048 36.7682C23.9783 36.0782 23.9346 35.4178 23.9167 34.7871L23.8636 32.601L25.5818 32.2539L26.2756 33.9618C26.6021 34.756 26.9385 35.7059 27.2848 36.8115C27.2174 36.2971 27.1648 35.8395 27.1269 35.4387C27.0891 35.0378 27.0635 34.6727 27.0501 34.3433L26.9506 31.9773L28.8985 31.5837L28.8936 39.2761ZM36.0395 37.8322L33.9767 38.249L33.6387 37.3409L32.2939 37.6127L32.3207 38.5836L30.2579 39.0004L30.5403 31.2519L32.9812 30.7587L36.0395 37.8322ZM33.0841 35.8041L32.7808 34.9687C32.777 34.9662 32.7619 34.9244 32.7356 34.8434C32.715 34.7745 32.6254 34.5037 32.4668 34.0309C32.4494 33.978 32.4266 33.9062 32.3984 33.8156C32.3695 33.7218 32.3325 33.6047 32.2876 33.4644L32.0841 32.7782C32.0913 32.8465 32.0969 32.9234 32.1009 33.0089C32.1081 33.0938 32.1153 33.187 32.1225 33.2885C32.1401 33.4908 32.1519 33.6313 32.1578 33.7098C32.1637 33.7883 32.1667 33.8358 32.1667 33.8524L32.2088 34.7755L32.2418 35.9743L33.0841 35.8041ZM39.9212 37.0479L36.4273 37.7538L34.9342 30.3641L36.93 29.9609L38.0643 35.5749L39.5624 35.2722L39.9212 37.0479ZM43.8124 36.2616L40.3186 36.9676L38.8254 29.5779L40.8212 29.1746L41.9556 34.7887L43.4537 34.486L43.8124 36.2616ZM44.2099 36.1813L42.7167 28.7916L46.4259 28.0421L46.777 29.7794L45.0636 30.1257L45.2812 31.2025L46.8175 30.8921L47.155 32.5624L45.6187 32.8729L45.8469 34.0024L47.5603 33.6562L47.9191 35.4318L44.2099 36.1813ZM51.1595 34.7771L49.1637 35.1803L48.0283 29.5615L46.9275 29.7839L46.5697 28.013L50.8102 27.1562L51.168 28.9271L50.0241 29.1582L51.1595 34.7771ZM52.5922 34.2983L52.1232 31.977C52.624 32.4338 53.1025 32.616 53.5588 32.5238C53.7311 32.489 53.8624 32.416 53.9529 32.3047C54.0427 32.1903 54.0737 32.0644 54.046 31.9272C54.006 31.7294 53.8489 31.5602 53.5748 31.4197L53.1981 31.2318C52.9482 31.1129 52.7306 30.9892 52.5452 30.8606C52.3592 30.7288 52.2012 30.588 52.0713 30.4382C51.9408 30.2853 51.8348 30.1224 51.7534 29.9495C51.672 29.7767 51.611 29.5898 51.5703 29.3888C51.5007 29.0442 51.5076 28.6675 51.5911 28.2587C51.6354 28.0671 51.6957 27.8889 51.772 27.724C51.8476 27.556 51.9427 27.4023 52.0574 27.2629C52.3694 26.8677 52.7919 26.6163 53.3247 26.5086C53.8001 26.4126 54.3042 26.4419 54.8369 26.5966L55.2934 28.8557C55.0797 28.6365 54.8547 28.476 54.6183 28.3744C54.3812 28.2695 54.1622 28.2374 53.9612 28.278C53.808 28.3089 53.691 28.3791 53.6102 28.4884C53.5255 28.5952 53.4954 28.7092 53.5199 28.8304C53.5598 29.0283 53.7351 29.1971 54.0456 29.3369L54.4089 29.5076C54.8913 29.7256 55.2557 29.9758 55.5021 30.2581C55.7516 30.5398 55.9196 30.8944 56.0059 31.322C56.1529 32.0495 56.0524 32.6941 55.7043 33.256C55.3562 33.8178 54.8423 34.1674 54.1627 34.3047C53.6937 34.3995 53.1702 34.3973 52.5922 34.2983Z" fill="white"/>
</g>
<defs>
<clipPath id="clip0_237_773">
<rect width="62.9146" height="48" fill="white" transform="translate(0.90332 16.4595) rotate(-15)"/>
</clipPath>
</defs>
</svg>
